X:491
T:My Ain Kind Dearie, O
T:The Lea-Rig
S:Sessions etc
Z:Nigel Gatherer
M:4/4
L:1/8
K:G
BA | B2 D2 D2 E2 | G3 A G2 B2 | A3 B cBAG | B2 E2 E2 
BA | B2 D2 D2 E2 | G3 A G2 gf | e3 d efgd | B2 G2 G2 ||
d2 | edef  g2 B2 | cBcd e2 G2 | A3 B cBAG | B2 E2 E2
BA | B2 D2 D2 E2 | G3 A GBdg  | e3 d efgd | B2 G2 G2 |]
